X: 561
M: 6/4
L: 1/4
K: D
|: (c/d/) |\
ecA d>ef | B3 g3 | (fe)d e>de | A3- A2f |\
g2f e2d | c>de A2A | B>cd ecA | Ad2- d2 :|

